X:155
T:Reel of Rathlin*  (r)
B:NFID.076a ("untitled reel")
155reel_r
S:JD
L:1/8
M:C
R:reel
Q:360
K:A=G
ed|ceAe cAec|BdGd BGdG|ceAd cBce|1 dBgB Aa:|\
[2 dBgB BAAB||
P:2
cBcd efgf|dcdf edcB|A^gab agfa|gedg e2fg|
abag fage|dcdf edcB|Aa^ga egfa|gedB Aaed:|
P:3
(3cBA eA ceAc|BGdG BdGd|cAeA ceAc|dBgB Aaed|
(3cBA eA ceAc|BGdG BdGd|cBcd ef^ga|gedB A4|]

%%%

